X: 14580
T: Gan Ainm
R: jig
M: 6/8
K: Amajor
|:B|cea ecA|cea ecA|dfb fdB|dfb fdB|
cea ecA|cea ecA|dff cee|BcB A2:|

